svgs/light/floppy-disk-circle-xmark.svg

<svg xmlns="http://www.w3.org/2000/svg" viewBox="0 0 576 512"><!--! Font Awesome Pro 6.0.0-alpha3 by @fontawesome - https://fontawesome.com License - https://fontawesome.com/license (Commercial License) --><path d="M432 224C352.5 224 288 288.5 288 368s64.47 144 144 144s144-64.47 144-144S511.5 224 432 224zM432 480c-61.76 0-112-50.24-112-112S370.2 256 432 256S544 306.2 544 368S493.8 480 432 480zM488.5 311.5c-6.242-6.242-16.37-6.231-22.61 .0113l-33.91 33.91l-33.91-33.91c-6.242-6.242-16.37-6.253-22.62-.0106s-6.233 16.37 .009 22.62l33.91 33.91l-33.91 33.91c-6.242 6.242-6.252 16.37-.0098 22.62s16.37 6.232 22.62-.0106l33.91-33.91l33.91 33.91c6.242 6.242 16.38 6.254 22.62 .0113c6.242-6.242 6.232-16.37-.0098-22.62l-33.91-33.91l33.91-33.91C494.8 327.8 494.8 317.7 488.5 311.5zM266.7 448H80C53.49 448 32 426.5 32 400v-288c0-20.83 13.42-38.43 32-45.05V160c0 17.67 14.33 32 32 32h192c17.67 0 32-14.33 32-32V72.02c2.664 1.758 5.166 3.771 7.438 6.043l74.5 74.5c6.127 6.137 10.4 13.63 12.52 21.81c1.848 7.113 8.137 12.15 15.48 12.15c10.61 0 18.14-10.1 15.46-20.37c-3.545-13.58-10.64-26.03-20.84-36.21l-74.5-74.5C334.9 40.33 314.9 32 293.5 32H80C35.82 32 0 67.82 0 112v288C0 444.2 35.82 480 80 480h186.7c12.71 0 20.34-14.1 13.4-24.74C277.1 450.7 272.1 448 266.7 448zM96 64h192v96H96V64zM224 272c11.95 0 22.85 4.402 31.23 11.66c7.73 6.701 19.33 5.115 24.43-3.758C279.7 279.8 279.8 279.7 279.8 279.6c3.711-6.434 2.199-14.56-3.355-19.49C262.5 247.7 244.2 240 224 240c-44.03 0-79.84 35.73-80 79.7c-.1445 39.62 30.22 74.11 69.47 79.56c11.34 1.576 22.14 .5313 32.16-2.402c6.994-2.045 11.73-8.553 11.4-15.83c-.0078-.1484-.0137-.2988-.0195-.4473c-.4531-10.34-10.47-17.04-20.45-14.29c-7.441 2.059-15.61 2.344-24.08 .3301c-17.66-4.201-31.77-18.69-35.44-36.47C170.7 299.3 194.2 272 224 272z"/></svg>

<svg xmlns="http://www.w3.org/2000/svg" viewBox="0 0 576 512"><!-- Font Awesome Pro 6.0.0-alpha2 by @fontawesome - https://fontawesome.com License - https://fontawesome.com/license (Commercial License) --><path d="M432 224C352.471 224 288 288.471 288 368S352.471 512 432 512S576 447.529 576 368S511.529 224 432 224ZM432 480C370.242 480 320 429.758 320 368S370.242 256 432 256S544 306.242 544 368S493.758 480 432 480ZM488.518 311.486C482.275 305.244 472.154 305.244 465.912 311.486L432.002 345.396L398.09 311.482C391.848 305.24 381.725 305.24 375.482 311.482S369.24 327.846 375.482 334.088L409.396 368.002L375.486 401.912C369.244 408.154 369.244 418.275 375.486 424.518S391.85 430.76 398.092 424.518L432.002 390.607L465.908 424.514C472.15 430.756 482.273 430.756 488.514 424.514C494.756 418.271 494.756 408.15 488.514 401.908L454.607 368.002L488.518 334.092C494.76 327.85 494.76 317.729 488.518 311.486ZM266.699 448H80C53.49 448 32 426.51 32 400V112C32 91.168 45.416 73.574 64 66.947V160C64 177.672 78.326 192 96 192H288C305.674 192 320 177.672 320 160V72.02C322.664 73.777 325.166 75.791 327.438 78.063L401.938 152.563C408.064 158.699 412.334 166.193 414.457 174.369C416.305 181.482 422.594 186.516 429.941 186.516C440.555 186.516 448.084 176.416 445.402 166.148C441.857 152.568 434.758 140.121 424.563 129.938L350.063 55.438C334.938 40.328 314.875 32 293.5 32H80C35.816 32 0 67.816 0 112V400C0 444.182 35.816 480 80 480H266.699C279.404 480 287.041 465.902 280.102 455.26C277.148 450.73 272.107 448 266.699 448ZM96 64H288V160H96V64ZM224 272C235.947 272 246.85 276.402 255.227 283.664C262.957 290.365 274.561 288.779 279.652 279.906C279.713 279.799 279.775 279.693 279.836 279.586C283.547 273.152 282.035 265.021 276.48 260.094C262.463 247.662 244.186 240 224 240C179.975 240 144.16 275.73 144 319.703C143.855 359.326 174.223 393.813 213.469 399.268C224.807 400.844 235.607 399.799 245.631 396.865C252.625 394.82 257.363 388.313 257.035 381.031C257.027 380.883 257.021 380.732 257.016 380.584C256.562 370.244 246.541 363.539 236.566 366.299C229.125 368.357 220.953 368.643 212.484 366.629C194.826 362.428 180.717 347.936 177.049 330.16C170.676 299.271 194.211 272 224 272Z"/></svg>
